public/images/categories/art.svg

<?xml version="1.0" encoding="UTF-8" standalone="no"?>
<svg
   width="20"
   height="20"
   viewBox="0 0 20 20"
   fill="currentColor"
   version="1.1"
   id="svg6"
   xmlns="http://www.w3.org/2000/svg"
   xmlns:svg="http://www.w3.org/2000/svg">
  <defs
     id="defs10" />
  <path
     id="path2"
     d="M 7.4101562,0.00195313 C 6.6925794,0.0258133 5.9088075,0.2125855 5.125,0.55859375 3.95843,1.0998628 0,3.3896269 0,9.9667969 c 0,5.4949101 3.45821,9.9902341 7.75,9.9902341 4.58337,0 7.75,-5.036819 7.75,-9.574219 0,-1.4570195 -0.333984,-2.6628589 -0.958984,-3.5371089 -0.7084,-1.04071 -1.832516,-1.5820312 -3.166016,-1.5820312 -0.3749,0 -0.707716,-0.1674944 -0.916016,-0.4589844 -0.2084,-0.33294 -0.293068,-0.7488512 -0.167968,-1.0820313 0.375,-1.24885 0.209598,-2.2883057 -0.5820316,-2.9960937 C 9.1465069,0.21135356 8.3327551,-0.02872425 7.4101562,0.00195313 Z m 10.0468748,0 c -0.04102,3.26e-6 -0.0814,0.0052075 -0.123047,0.015625 -0.1666,0.04166989 -0.25,0.20852799 -0.25,0.37499999 C 17.000584,2.3075351 16.625,2.641025 16.25,3.015625 16.1666,3.098965 16.0834,3.1393162 16,3.2226562 c -0.5416,0.58275 -0.7085,1.4582357 -0.375,2.1660157 0.1666,0.33295 0.374316,0.5828756 0.666016,0.7910156 -0.1249,1.87327 -0.207032,2.9961206 -0.207032,4.9941405 0,2.2479 0.08272,4.371225 0.291016,5.953125 C 16.6666,19.541453 16.9999,20 17.5,20 c 0.5001,0 0.833984,-0.457478 1.083984,-2.830078 0.1667,-1.5818 0.291016,-3.705125 0.291016,-5.953125 0,-2.0397101 -0.08408,-3.1638395 -0.208984,-5.0371095 C 19.457616,5.7217275 20,4.889865 20,3.890625 20,2.558415 17.999316,0.39240012 17.791016,0.14257812 17.697266,0.048977 17.580088,0.00194332 17.457031,0.00195313 Z M 4.25,5.0136719 c 0.79162,0 1.4589844,0.6661412 1.4589844,1.4570312 0,0.79088 -0.6256444,1.4570313 -1.4589844,1.4570313 -0.83333,0 -1.4589844,-0.6661513 -1.4589844,-1.4570313 0,-0.79089 0.6671644,-1.4570312 1.4589844,-1.4570312 z m 6.833984,2.4902343 c 0.87437,-0.0074 1.712891,0.6995594 2.041016,1.7558594 0.2083,0.66589 0.125584,1.3317464 -0.166016,1.8730464 -0.2083,0.4163 -0.5833,0.666216 -1,0.791016 -0.1249,0.0416 -0.2501,0.04102 -0.375,0.04102 -0.875,0 -1.7097384,-0.707347 -2.0429684,-1.748047 C 9.3326856,9.5506469 9.4174344,8.88481 9.7089844,8.34375 9.9173144,7.92747 10.292284,7.6775144 10.708984,7.5527344 c 0.124988,-0.031226 0.25009,-0.047771 0.375,-0.048828 z m -7.6249996,1.171875 c 0.79161,0 1.4570312,0.6661613 1.4570312,1.4570308 0,0.790901 -0.6654212,1.457032 -1.4570312,1.457032 C 2.6673644,11.589844 2,10.965412 2,10.132812 2,9.3419425 2.6673644,8.6757813 3.4589844,8.6757812 Z m 1.2070312,3.9140628 c 0.79162,0 1.4589844,0.666131 1.4589844,1.457031 0,0.7909 -0.6256444,1.457031 -1.4589844,1.457031 -0.79162,0 -1.4570312,-0.666131 -1.4570312,-1.457031 0,-0.7909 0.6654112,-1.457031 1.4570312,-1.457031 z M 8,14.796875 c 0.79161,0 1.4589844,0.666131 1.4589844,1.457031 0,0.7909 -0.6256544,1.457032 -1.4589844,1.457032 -0.79162,0 -1.4589844,-0.666132 -1.4589844,-1.457032 0,-0.7909 0.6673644,-1.457031 1.4589844,-1.457031 z" />
</svg>

<svg width="20" height="20" viewBox="0 0 20 20" fill="currentColor" xmlns="http://www.w3.org/2000/svg">
<path d="M11.3749 5.26335C11 5.26335 10.6665 5.09688 10.4582 4.80539C10.2498 4.47245 10.1664 4.05619 10.2915 3.72301C10.6665 2.47416 10.4999 1.43345 9.70827 0.725662C8.70831 -0.190265 6.91648 -0.231685 5.12492 0.559191C3.95835 1.10046 0 3.39002 0 9.96719C0 15.4621 3.45824 19.958 7.75003 19.958C12.3334 19.958 15.5001 14.9209 15.5001 10.3835C15.5001 8.92648 15.1668 7.71932 14.5418 6.84507C13.8334 5.80436 12.7084 5.26335 11.3749 5.26335ZM4.24992 5.01354C5.04154 5.01354 5.70826 5.67964 5.70826 6.47053C5.70826 7.26141 5.08326 7.92752 4.24992 7.92752C3.41659 7.92752 2.79158 7.26141 2.79158 6.47053C2.79158 5.67964 3.4581 5.01354 4.24992 5.01354ZM1.99976 10.1337C1.99976 9.34283 2.66648 8.67672 3.4581 8.67672C4.24971 8.67672 4.91643 9.34283 4.91643 10.1337C4.91643 10.9246 4.24971 11.5907 3.4581 11.5907C2.66648 11.5907 1.99976 10.9663 1.99976 10.1337ZM4.66659 15.5038C3.87497 15.5038 3.20825 14.8377 3.20825 14.0468C3.20825 13.2559 3.87497 12.5898 4.66659 12.5898C5.45821 12.5898 6.12493 13.2559 6.12493 14.0468C6.12493 14.8377 5.49993 15.5038 4.66659 15.5038ZM7.99994 17.71C7.20832 17.71 6.5416 17.0439 6.5416 16.253C6.5416 15.4621 7.20832 14.796 7.99994 14.796C8.79155 14.796 9.45827 15.4621 9.45827 16.253C9.45827 17.0439 8.83327 17.71 7.99994 17.71ZM12.9582 11.1327C12.7499 11.549 12.375 11.7988 11.9583 11.9236C11.8334 11.9652 11.7082 11.9652 11.5833 11.9652C10.7083 11.9652 9.87493 11.2575 9.5417 10.2168C9.33337 9.55065 9.41678 8.88454 9.70833 8.34348C9.91666 7.9272 10.2916 7.67737 10.7083 7.55259C11.7082 7.30278 12.7499 8.05221 13.1249 9.25941C13.3332 9.9253 13.2498 10.5914 12.9582 11.1327Z" />
<path d="M20 3.88969C20 2.55748 18.0001 0.392963 17.7918 0.143141C17.6668 0.0183395 17.5 -0.0233304 17.3334 0.0183396C17.1668 0.0600095 17.0833 0.226481 17.0833 0.392953C16.9999 2.30791 16.625 2.64083 16.25 3.01543C16.1666 3.09877 16.0834 3.14023 16 3.22357C15.4584 3.80632 15.2915 4.68057 15.625 5.38835C15.7916 5.7213 16 5.9711 16.2917 6.17924C16.1668 8.05251 16.0834 9.17658 16.0834 11.1746C16.0834 13.4225 16.1668 15.5456 16.3751 17.1275C16.6667 19.542 16.9999 20 17.5 20C18.0001 20 18.3334 19.542 18.5834 17.1694C18.7501 15.5876 18.8752 13.4645 18.8752 11.2165C18.8752 9.17679 18.7918 8.05272 18.6669 6.17945C19.4585 5.72149 20 4.88893 20 3.88969Z" />
</svg>
